X: 14
T: THE THREE SEA CAPTAINS
S: "Community Dances Manual 5", EFDSS, Michael Bell ed., 1957 p.5
R: jig
Z: 2010 John Chambers <jc:trillian.mit.edu>
M: 6/8
L: 1/8
K: G
"A"D |\
"G"G2G BGB | "D7"c2A F2D | "G"G2G BGB | "G"d2B G2B |\
"Am"cec "D7"A2c | "G"BdB G2B | "Am"A2B c2B | "Am"ABG "D"FED ||
!Segno![|]\
"G"G2G BGB | "D"c2A F2D | "G"G2G BGB | "G"d2B "(G7)"G2B |\
"Am"cec "D7"A2c | "G"BdB G2F | "C"EcB "D7"AGF | "G"G3- "FINE"G2 |]
"B"[|d |\
"G"g2g dcB | "D7"ABc def | "G"g2g dBd | "Am"ecA "D"A2f |\
"Em"gfg bge | "D"fef afd |
"Em"e2f g2f | "A7"ed^c "D"d2d |\
"C"=cBc ecA | "G"BAB dBG | "Am"A2B c2B | "Am"ABG "D"FED "to"y!Segno!|]
%
% Original last line was:
% "C"=cBc ecA | "G"BAB dBG | "Am"A2B c2B | "Am"ABG "D"FED | "G"G2 !Segno!|]
% The final G2 doesn't make much sense, and breaks the rhythm.


%%sep 5 1 500

%%sep 1 1 500

